Newaita-dark/.DP/32/slack-indicator.svg

<svg xmlns="http://www.w3.org/2000/svg" xmlns:xlink="http://www.w3.org/1999/xlink" width="32px" height="32px" viewBox="0 0 32 32" version="1.1">
<g id="surface1">
<path style=" stroke:none;fill-rule:nonzero;fill:rgb(93.333334%,93.333334%,93.333334%);fill-opacity:1;" d="M 5.746094 8.988281 C 5.113281 9.355469 4.894531 10.160156 5.261719 10.796875 L 7.246094 14.234375 L 4.382812 15.886719 C 3.746094 16.253906 3.53125 17.058594 3.898438 17.695312 C 4.265625 18.332031 5.070312 18.546875 5.707031 18.179688 L 8.570312 16.527344 L 11.878906 22.253906 L 9.011719 23.910156 C 8.378906 24.273438 8.164062 25.082031 8.527344 25.714844 C 8.894531 26.347656 9.703125 26.566406 10.335938 26.199219 L 13.199219 24.546875 L 14.523438 26.839844 C 14.890625 27.472656 15.699219 27.6875 16.332031 27.324219 C 16.964844 26.957031 17.183594 26.148438 16.816406 25.515625 L 15.492188 23.222656 L 21.222656 19.914062 L 22.542969 22.207031 C 22.910156 22.839844 23.714844 23.058594 24.351562 22.691406 C 24.988281 22.324219 25.203125 21.519531 24.835938 20.882812 L 23.511719 18.589844 L 26.378906 16.9375 C 27.011719 16.574219 27.230469 15.765625 26.863281 15.128906 C 26.496094 14.496094 25.691406 14.28125 25.054688 14.644531 L 22.191406 16.300781 L 18.882812 10.574219 L 21.746094 8.917969 C 22.382812 8.550781 22.597656 7.746094 22.230469 7.109375 C 21.863281 6.476562 21.058594 6.261719 20.425781 6.625 L 17.558594 8.28125 L 15.574219 4.84375 C 15.207031 4.207031 14.402344 3.992188 13.769531 4.359375 C 13.132812 4.722656 12.917969 5.53125 13.285156 6.167969 L 15.269531 9.605469 L 9.539062 12.910156 L 7.554688 9.472656 C 7.1875 8.839844 6.382812 8.621094 5.746094 8.988281 Z M 10.863281 15.203125 L 16.589844 11.894531 L 19.898438 17.621094 L 14.167969 20.933594 Z M 10.863281 15.203125 "/>
</g>
</svg>

<svg xmlns="http://www.w3.org/2000/svg" width="32" height="32"><path d="M5.746 8.988a1.322 1.322 0 0 0-.484 1.809l1.984 3.437-2.863 1.653a1.322 1.322 0 0 0-.485 1.808 1.322 1.322 0 0 0 1.809.485l2.863-1.657 3.309 5.73-2.867 1.653a1.322 1.322 0 0 0-.48 1.809 1.315 1.315 0 0 0 1.804.484l2.863-1.652 1.324 2.289a1.32 1.32 0 0 0 1.809.484 1.318 1.318 0 0 0 .484-1.804l-1.324-2.293 5.73-3.309 1.321 2.293a1.323 1.323 0 0 0 1.809.484 1.32 1.32 0 0 0 .484-1.808l-1.324-2.29 2.867-1.655a1.322 1.322 0 1 0-1.324-2.29l-2.864 1.653-3.308-5.73 2.863-1.653a1.322 1.322 0 1 0-1.32-2.293l-2.867 1.656-1.985-3.437a1.315 1.315 0 0 0-1.804-.485 1.315 1.315 0 0 0-.485 1.805l1.985 3.438-5.73 3.308-1.985-3.437a1.322 1.322 0 0 0-1.809-.485zm5.117 6.215l5.727-3.308 3.308 5.73-5.73 3.305zm0 0" fill="#bdbdbd"/></svg>
